logos/emacs.svg

<?xml version="1.0" encoding="UTF-8"?>
<svg width="256px" height="256px" viewBox="0 0 256 256" version="1.1" xmlns="http://www.w3.org/2000/svg" preserveAspectRatio="xMidYMid">
    <title>Emacs</title>
    <defs>
        <linearGradient x1="25.1405003%" y1="20.1364773%" x2="92.3935234%" y2="101.47711%" id="emacsLinearGradient-1">
            <stop stop-color="#8381C5" offset="0%"></stop>
            <stop stop-color="#7E55B3" stop-opacity="0.99607843" offset="56.639391%"></stop>
            <stop stop-color="#A52ECB" stop-opacity="0.99215686" offset="100%"></stop>
        </linearGradient>
        <linearGradient x1="90.7163375%" y1="79.0920364%" x2="32.7486929%" y2="9.82547129%" id="emacsLinearGradient-2">
            <stop stop-color="#411F5D" offset="0%"></stop>
            <stop stop-color="#5B2A85" offset="100%"></stop>
        </linearGradient>
    </defs>
    <g>
        <path d="M253,128 C253,197.035596 197.035598,253 128.000027,253 C58.9644562,253 3,197.035596 3,128 C3,58.9643989 58.9644562,3 128.000027,3 C197.035598,3 253,58.9643989 253,128 Z" fill="url(#emacsLinearGradient-1)"></path>
        <path d="M128.000027,1.42108547e-14 C57.2994407,1.42108547e-14 0,57.3155355 0,128 C0,198.684462 57.2994433,256 128.000027,256 C198.700601,256 256,198.684472 256,128 C256,57.3155257 198.700603,1.42108547e-14 128.000027,1.42108547e-14 Z M128.000027,7.05007045 C194.751995,7.05007045 248.879909,61.1932214 248.879909,128.000003 C248.879909,194.806776 194.751992,248.94993 128.000027,248.94993 C61.2480511,248.94993 7.1200908,194.806765 7.1200908,128.000003 C7.1200908,61.1932322 61.2480485,7.05007045 128.000027,7.05007045 Z" fill="url(#emacsLinearGradient-2)"></path>
        <path d="M85.2294579,217.572538 C85.2294579,217.572538 95.7661306,218.317923 109.32109,217.123286 C114.810505,216.639491 135.652336,214.592328 151.234451,211.175064 C151.234451,211.175064 170.232811,207.109174 180.396722,203.363588 C191.031616,199.444411 196.818739,196.118119 199.423588,191.404874 C199.309992,190.439169 200.225589,187.014591 195.321233,184.957542 C182.782654,179.698419 168.240887,180.64968 139.466325,180.039601 C107.556464,178.943196 96.9413205,173.601968 91.2866902,169.300143 C85.8642686,164.936118 88.5909333,152.862677 111.824728,142.22781 C123.528263,136.564595 169.407429,126.1136 169.407429,126.1136 C153.956151,118.4762 125.144382,105.0499 119.221831,102.150601 C114.027401,99.6077918 105.714755,95.7790324 103.912868,91.1467452 C101.869911,86.6996057 108.737632,82.8687644 112.573881,81.7717248 C124.928882,78.2079769 142.370376,75.9929936 158.244166,75.744322 C166.22318,75.619319 167.518317,75.1059561 167.518317,75.1059561 C178.527842,73.2796956 185.775478,65.7472758 182.755803,53.8181459 C180.044939,41.6416203 165.747606,34.4868199 152.160937,36.9637347 C139.366395,39.2962637 108.528217,48.2539222 108.528217,48.2539222 C146.646487,47.9240096 153.026462,48.5602136 155.875851,52.5440511 C157.55859,54.8967903 155.111217,58.1227625 144.945224,59.7830872 C133.877674,61.5906642 110.871284,63.7674639 110.871284,63.7674639 C88.8008287,65.0781889 73.2544254,65.1659158 68.5916735,75.0379376 C65.5454682,81.4874479 71.8401406,87.1892886 74.599101,90.758364 C86.2579559,103.724181 103.098429,110.716995 113.938361,115.866553 C118.016961,117.804097 129.98404,121.463088 129.98404,121.463088 C94.8173843,119.528896 69.449458,130.327324 54.5688266,142.760219 C37.7383357,158.327606 45.1836409,176.883451 79.6646684,188.308795 C100.030551,195.057048 110.130725,198.230755 140.509503,195.495159 C158.402923,194.530703 161.223645,195.104648 161.402045,196.572886 C161.653205,198.640035 141.527591,203.774907 136.033105,205.359772 C122.055045,209.391695 85.4128761,217.533052 85.2294579,217.572538 L85.2294579,217.572538 Z" fill="#FFFFFF"></path>
    </g>
</svg>

<svg preserveAspectRatio="xMidYMid" viewBox="0 0 256 256" xmlns="http://www.w3.org/2000/svg">
  <defs>
    <linearGradient id="emacs_svg__a" x1="25.141%" x2="92.394%" y1="20.136%" y2="101.477%">
      <stop offset="0%" stop-color="#8381C5"/>
      <stop offset="56.639%" stop-color="#7E55B3" stop-opacity=".996"/>
      <stop offset="100%" stop-color="#A52ECB" stop-opacity=".992"/>
    </linearGradient>
    <linearGradient id="emacs_svg__b" x1="90.716%" x2="32.749%" y1="79.092%" y2="9.825%">
      <stop offset="0%" stop-color="#411F5D"/>
      <stop offset="100%" stop-color="#5B2A85"/>
    </linearGradient>
  </defs>
  <path fill="url(#emacs_svg__a)" d="M253 128c0 69.036-55.964 125-125 125S3 197.036 3 128 58.964 3 128 3s125 55.964 125 125Z"/>
  <path fill="url(#emacs_svg__b)" d="M128 0C57.3 0 0 57.316 0 128s57.3 128 128 128 128-57.316 128-128S198.7 0 128 0Zm0 7.05c66.752 0 120.88 54.143 120.88 120.95S194.752 248.95 128 248.95 7.12 194.807 7.12 128 61.248 7.05 128 7.05Z"/>
  <path fill="#FFF" d="M85.23 217.573s10.536.745 24.091-.45c5.49-.484 26.331-2.53 41.913-5.948 0 0 18.999-4.066 29.163-7.811 10.635-3.92 16.422-7.246 19.027-11.96-.114-.965.802-4.39-4.103-6.446-12.538-5.26-27.08-4.308-55.855-4.918-31.91-1.097-42.525-6.438-48.18-10.74-5.422-4.364-2.695-16.437 20.539-27.072 11.703-5.663 57.582-16.114 57.582-16.114-15.45-7.638-44.263-21.064-50.185-23.963-5.195-2.543-13.507-6.372-15.31-11.004-2.042-4.447 4.826-8.278 8.662-9.375 12.355-3.564 29.796-5.779 45.67-6.028 7.98-.125 9.274-.638 9.274-.638 11.01-1.826 18.257-9.359 15.238-21.288-2.711-12.176-17.008-19.331-30.595-16.854-12.795 2.332-43.633 11.29-43.633 11.29 38.118-.33 44.498.306 47.348 4.29 1.683 2.353-.765 5.579-10.93 7.24-11.068 1.807-34.075 3.983-34.075 3.983-22.07 1.311-37.617 1.399-42.28 11.27-3.046 6.45 3.25 12.152 6.008 15.721 11.659 12.966 28.5 19.959 39.34 25.109 4.078 1.937 16.045 5.596 16.045 5.596-35.167-1.934-60.535 8.864-75.415 21.297-16.83 15.568-9.385 34.123 25.096 45.549 20.366 6.748 30.466 9.922 60.845 7.186 17.893-.964 20.714-.39 20.892 1.078.251 2.067-19.874 7.202-25.369 8.787-13.978 4.032-50.62 12.173-50.804 12.213Z"/>
</svg>
